X:1
T:Lammas, 10.10
T:Lammas, 10.10
T:Arthur Henry Brown, 1868
T:Public Domain Courtesy of the Cyber Hymnal™
C:Arthur Henry Brown, 1868
Z:Public Domain
Z:Courtesy of the Cyber Hymnal™
%%score ( 1 2 ) ( 3 4 )
L:1/8
Q:1/4=115
M:4/4
K:G
V:1 treble 
V:2 treble 
V:3 bass 
V:4 bass 
V:1
 [DB]4 [DA]2 [DG]2 | [CG]4 [CF]4 | [B,G]2 d2 [Fc]2 [GB]2 | B8 | [EA]4 [DB]2 [Cc]2 | %5
 [DF]2 [CE]2 D2 [CG]2 | G6 [CF]2 | [B,G]8 |] %8
V:2
 x8 | x8 | x2 (DE) x4 | (G4 F4) | x8 | x4 D2 x2 | (D2 CB, C2) x2 | x8 |] %8
V:3
 [G,D]4 [F,C]2 [G,C]2 | A,4 [D,A,]4 | [E,G,]2 [B,,G,]2 [A,,A,]2 (B,C) | [D,D]8 | %4
 [C,A,]4 [B,,^G,]2 [A,,A,]2 | [D,A,]2 [E,G,][F,A,] [G,B,]2 [E,C]2 | (B,2 A,G, A,2) [D,A,]2 | %7
 [G,,B,]8 |] %8
V:4
 x8 | A,4 x4 | x6 G,,2 | x8 | x8 | x8 | D,6 x2 | x8 |] %8

